svgs/izneo.svg

<svg xmlns="http://www.w3.org/2000/svg" viewBox="0 0 192 192"><path d="M20.791 171.108c-1.853-1.208-2.031-6.138-.344-9.554 1.102-2.233 3.098-6.829 7.683-17.701.917-2.175 2.08-4.723 2.584-5.663.843-1.57-.011-3.948-6.18-17.205-.792-1.702-1.794-4.753-2.228-6.778-.433-2.026-1.179-4.192-1.659-4.813-.479-.622-1.242-3.418-1.695-6.214-.453-2.797-1.292-5.975-1.863-7.063-1.786-3.4-1.256-29.587.72-35.601 5.179-15.762 13.297-25.24 27.132-31.677 7.597-3.535 16.369-5.776 29.375-7.501 11.441-1.519 13.593-1.483 27.115.45 8.078 1.154 17.229 2.886 20.336 3.847 10.33 3.196 14.123 4.653 14.123 5.424 0 .42 1.525 1.098 3.389 1.508 1.865.409 3.39 1.178 3.39 1.708s1.105 1.315 2.455 1.743c3.224 1.024 4.366 1.957 13.221 10.812 8.514 8.515 9.057 9.196 11.595 14.578 5.398 11.442 7.076 22.315 5.486 35.558-1.05 8.748-3.484 19.12-4.795 20.431-.466.466-.853 1.652-.861 2.636-.016 1.905-5.036 12.276-9.257 19.122-8.685 14.086-21.418 23.941-37.15 28.752-12.558 3.841-37.76 2.191-50.348-3.296-1.958-.853-3.875-1.552-4.259-1.552-.385 0-2.791-1.32-5.348-2.934-3.732-2.356-5.119-2.702-7.038-1.756-1.315.647-4.933 2.25-8.04 3.56-3.107 1.311-6.666 2.836-7.909 3.39-14.401 6.414-17.34 7.281-19.63 5.789Zm70.166-50.416c4.777-2.797 9.215-5.084 9.862-5.084.647 0 1.177-.397 1.177-.883 0-.485 1.398-1.477 3.107-2.205 3.588-1.527 11.04-5.742 14.58-8.246 4.024-2.846 3.976-9.295-.086-11.483a759.446 759.446 0 0 0-8.191-4.299c-3.001-1.553-6.128-3.46-6.949-4.237-.821-.776-2.219-1.412-3.107-1.412-.888 0-1.614-.508-1.614-1.13 0-.621-.569-1.129-1.264-1.129-.696 0-4.194-1.78-7.774-3.955s-7.714-3.946-9.186-3.937c-5.869.038-6.041.646-6.423 22.81-.197 11.359-.069 22.189.283 24.066.536 2.856 3.086 5.309 6.311 6.069.324.076 4.497-2.149 9.274-4.945Z"/></svg>

<svg
    xmlns="http://www.w3.org/2000/svg"
    viewBox="0 0 192 192"
    id="vector">
    <g id="group">
        <path
            id="path_6"
            d="M 20.791 171.108 C 18.938 169.9 18.76 164.97 20.447 161.554 C 21.549 159.321 23.545 154.725 28.13 143.853 C 29.047 141.678 30.21 139.13 30.714 138.19 C 31.557 136.62 30.703 134.242 24.534 120.985 C 23.742 119.283 22.74 116.232 22.306 114.207 C 21.873 112.181 21.127 110.015 20.647 109.394 C 20.168 108.772 19.405 105.976 18.952 103.18 C 18.499 100.383 17.66 97.205 17.089 96.117 C 15.303 92.717 15.833 66.53 17.809 60.516 C 22.988 44.754 31.106 35.276 44.941 28.839 C 52.538 25.304 61.31 23.063 74.316 21.338 C 85.757 19.819 87.909 19.855 101.431 21.788 C 109.509 22.942 118.66 24.674 121.767 25.635 C 132.097 28.831 135.89 30.288 135.89 31.059 C 135.89 31.479 137.415 32.157 139.279 32.567 C 141.144 32.976 142.669 33.745 142.669 34.275 C 142.669 34.805 143.774 35.59 145.124 36.018 C 148.348 37.042 149.49 37.975 158.345 46.83 C 166.859 55.345 167.402 56.026 169.94 61.408 C 175.338 72.85 177.016 83.723 175.426 96.966 C 174.376 105.714 171.942 116.086 170.631 117.397 C 170.165 117.863 169.778 119.049 169.77 120.033 C 169.754 121.938 164.734 132.309 160.513 139.155 C 151.828 153.241 139.095 163.096 123.363 167.907 C 110.805 171.748 85.603 170.098 73.015 164.611 C 71.057 163.758 69.14 163.059 68.756 163.059 C 68.371 163.059 65.965 161.739 63.408 160.125 C 59.676 157.769 58.289 157.423 56.37 158.369 C 55.055 159.016 51.437 160.619 48.33 161.929 C 45.223 163.24 41.664 164.765 40.421 165.319 C 26.02 171.733 23.081 172.6 20.791 171.108 Z M 90.957 120.692 C 95.734 117.895 100.172 115.608 100.819 115.608 C 101.466 115.608 101.996 115.211 101.996 114.725 C 101.996 114.24 103.394 113.248 105.103 112.52 C 108.691 110.993 116.143 106.778 119.683 104.274 C 123.707 101.428 123.659 94.979 119.597 92.791 C 118.092 91.98 114.406 90.046 111.406 88.492 C 108.405 86.939 105.278 85.032 104.457 84.255 C 103.636 83.479 102.238 82.843 101.35 82.843 C 100.462 82.843 99.736 82.335 99.736 81.713 C 99.736 81.092 99.167 80.584 98.472 80.584 C 97.776 80.584 94.278 78.804 90.698 76.629 C 87.118 74.454 82.984 72.683 81.512 72.692 C 75.643 72.73 75.471 73.338 75.089 95.502 C 74.892 106.861 75.02 117.691 75.372 119.568 C 75.908 122.424 78.458 124.877 81.683 125.637 C 82.007 125.713 86.18 123.488 90.957 120.692 Z"
            fill="#000000"
            stroke-width="12"/>
    </g>
</svg>
